!!!COM: Beethoven, Ludwig van
!!!CDT: 1770///-1827///
!!!OTL: Piano Sonata no. 13 in E-flat major
!!!OTP: quasi una fantasia
!!!OPS: 27
!!!ONM: 1
!!!OMV: 1
!!!OMD: Andante
**kern	**kern	**dynam
*staff2	*staff1	*staff1/2
*Ipiano	*Ipiano	*Ipiano
*>[A,A,B,B1,B,B2,C,C1,C,C2,D,E,E,F]	*>[A,A,B,B1,B,B2,C,C1,C,C2,D,E,E,F]	*>[A,A,B,B1,B,B2,C,C1,C,C2,D,E,E,F]
*>norep[A,B,B2,C,C2,D,E,F]	*>norep[A,B,B2,C,C2,D,E,F]	*>norep[A,B,B2,C,C2,D,E,F]
*>A	*>A	*>A
*clefF4	*clefG2	*clefG2
*k[b-e-a-]	*k[b-e-a-]	*k[b-e-a-]
*E-:	*E-:	*E-:
*M4/4	*M4/4	*M4/4
*MM100	*MM100	*MM100
=1-	=1-	=1-
2r	(4B-' 4g' 4b-'	pp
.	4B-') 4g' 4b-'	.
16r	2B- 2e- 2g	.
(16BB-LL<	.	.
16C	.	.
16DJJ	.	.
16E-LL	.	.
16F	.	.
16G	.	.
16E-JJ)	.	.
=2	=2	=2
8A-'	(4B-' 4d' 4f'	.
8r	.	.
4r	4B-') 4d' 4f'	.
(16A-LL	2B- 2f 2a- 2b-	.
16G	.	.
16F	.	.
16E-JJ	.	.
16DLL<	.	.
16C	.	.
16BB-	.	.
16DJJ)	.	.
=3	=3	=3
8E-'	(4B-' 4g' 4b-'	.
8r	.	.
4r	4B-') 4g' 4b-'	.
16r	2B- 2e- 2g	.
(16BB-LL<	.	.
16C	.	.
16DJJ	.	.
16E-LL	.	.
16F	.	.
16G	.	.
16E-JJ)	.	.
=4	=4	=4
(16A-LL	8B- 8d 8f	.
16F)	.	.
16D'	4b-^>/	.
16BB-'JJ	.	.
16AA-'LL	.	.
16FF'	.	.
16DD'	8A- 8b-	.
16BBB-'JJ	.	.
(4EE-	4G 4e-	.
8E-)	4r	.
8r	.	.
=5:|!|:	=5:|!|:	=5:|!|:
*>B	*>B	*>B
2r	(4f' 4a-'	pp
.	4f') 4a-'	.
16r	2f 2a- 2dd	.
16BBB-'LL	.	.
16BB-'	.	.
16C'JJ	.	.
16D'LL	.	.
16E-'	.	.
16F	.	.
16G'JJ	.	.
=6	=6	=6
(8An	(4f' 4dd'	<
[4.B-z)	.	.
.	4f') 4dd'	.
16B-]	2f/ 2a-/ 2dd/ 2ff/	.
16BBB-'LL	.	.
16BB-'	.	.
16C'JJ	.	.
16D'LL	.	.
16E-'	.	.
16F'	.	.
16G'JJ	.	.
=7	=7	=7
*	*^	*
(8An	2ryy	4f' 4dd' (4ff'	.
[4.B-z)	.	.	.
.	.	4f' 4dd' 4ff')	.
8B-L]	(4.aa-	4ddz 4ffz	.
(8Bn	.	.	.
8c	.	8ee-L	.
8GJ)	8gg)	8bnJ	.
*	*v	*v	*
=8	=8	=8
*>B1	*>B1	*>B1
*	*^	*
*^	*	*	*
4ryy	(8A-XL	(8ggL	8ccL	>
.	8An	8ff	8cc	.
[<4B-X	8B-X)	8ee-	8g	.
.	8BB-J	8ddJ	8f 8a-J	.
(<8B-]L	4.E-	4ff	(4a-	p
8d	.	.	.	.
8e-J)	.	8ee-)	8g)	.
8r	8r	8r	8r	.
*v	*v	*	*	*
*	*v	*v	*
=9:|!	=9:|!	=9:|!
*>B2	*>B2	*>B2
*	*^	*
*^	*	*	*
4ryy	(8A-XL	(8ggL	8ccL	>
.	8An	8ff	8cc	.
[<4B-X	8B-X)	8ee-	8g	.
.	8BB-J	8ddJ	8f 8a-J	.
(<8B-]L	4.E-	(4ff	(4a-	p
8d	.	.	.	.
8e-J)	.	8ee-))	8g)	.
8r	8r	8B-	8ryy	.
*v	*v	*	*	*
*	*v	*v	*
=10!|:	=10!|:	=10!|:
*>C	*>C	*>C
*	*^	*
8EE- 8BB- 8E-L	(4g'	8G 8B- 8e-L	pp
8EE- 8BB- 8E-	.	8G 8B- 8e-	.
8EE- 8BB- 8E-	4g')	8G 8B- 8e-	.
8EE- 8BB- 8E-J	.	8G 8B- 8e-J	.
8EE- 8BB- 8E-L	(4.g	8G 8B- 8e-L	.
8EE- 8BB- 8E-	.	8G 8B- 8e-	.
8EE- 8BB- 8E-	.	8G 8B- 8e-	.
8EE- 8BB- 8E-J	8f)	8G 8B- 8e-J	.
=11	=11	=11	=11
8EE- 8BB- 8E-L	(8e-L	8G (8e-L	.
8EE- 8BB- 8E-	8f	8G 8e-	.
8EE- 8BB- 8E-	8g	8G 8e-	.
8EE- 8BB- 8E-J	8a-J))	8G 8e-J	.
8EE- 8BB- 8E-L	(4an	8G 8e-L	.
8EE- 8BB- 8E-	.	8G 8e-	.
8EE- 8BB- 8E-	8b-)	8G 8e-	.
8EE- 8BB- 8E-J	8r	8G 8e-J	.
=12	=12	=12	=12
8FF 8BB- 8DL	(4b-'	8A- 8dL	.
8FF 8BB- 8D	.	8A- 8d	.
8FF 8BB- 8D	4b-')	8A- 8d	.
8FF 8BB- 8DJ	.	8A- 8dJ	.
8FF 8BB- 8DL	(4.b-	8A- 8dL	.
8FF 8BB- 8D	.	8A- 8d	.
8FF 8BB- 8D	.	8A- 8d	.
8FF 8BB- 8DJ	8a-X)	8A- 8dJ	.
*	*v	*v	*
=13	=13	=13
*>C1	*>C1	*>C1
*	*^	*
8BBB- 8BB-L	(8gL	8A- 8dL	.
8BBB- 8BB-	8f	8A- 8d	.
8BBB- 8BB-	8a-	8A- 8d	.
8BBB- 8BB-J	8dJ	8A-J	.
8EE- 8BB-L	4f	8GL	.
8EE- 8BB-	.	8G	.
8EE- 8BB-	8e-)	8G	.
8EE- 8BB-J	8B-	8GJ	.
*	*v	*v	*
=14:|!	=14:|!	=14:|!
*>C2	*>C2	*>C2
*	*^	*
8BBB- 8BB-L	(8gL	8A- 8dL	.
8BBB- 8BB-	8f	8A- 8d	.
8BBB- 8BB-	8a-	8A- 8d	.
8BBB- 8BB-J	8dJ	8A-J	.
8EE- 8BB-L	4f	8GL	.
8EE- 8BB-	.	8G	.
8EE- 8BB-J	8e-L)	8GJ	.
8r	8gJ	8r	.
*	*v	*v	*
=15	=15	=15
*>D	*>D	*>D
4C' 4En' 4G' (4c'	4en'\ 4g'\ 4cc'\ (4een'\	pp
4C' 4E' 4G' 4c')	4e'\ 4g'\ 4cc'\ 4ee'\)	.
4.C 4.E 4.G 4.c	4.e\ 4.g\ 4.cc\ 4.ee\	.
8c'	8e'\ 8cc'\	.
=16	=16	=16
8Bn' (8c'L	8f' (8dd'L	<
8B-' 8c'	8g' 8cc' 8een'	.
8A-' 8c'	8a-' 8cc' 8ff'	.
8En' 8c'J)	8b-' 8cc' 8gg'J)	[
4.F 4.c	2a- 2cc [2aa-	sf
(8EEn	.	.
=17	=17	=17
*	*^	*
8FFL	2ryy	8aa-L]	.
8GG	.	16aa-L	.
.	.	16ggJJ	.
8AA-	.	16ffLL	.
.	.	16ee-X	.
8AAnJ)	.	16dd	.
.	.	16ccJJ	.
2BB-z	[2b-z<	8r	>
.	.	(>16a-LL	.
.	.	16gJJ	.
.	.	16fLL	.
.	.	16e-	.
.	.	16d	.
.	.	16cJJ)	.
=18	=18	=18	=18
*^	*	*	*
(16BB-LL	>4BB-	(8b-L]	4B-	p
16C	.	.	.	.
16D	.	8an	.	.
16E-JJ	.	.	.	.
16FLL	4BB-	8a-	4d	.
16G	.	.	.	.
16A-	.	8fJ	.	.
16FJJ	.	.	.	.
4G)	4E-	4e-	4e-)	.
8EE-	4ryy	8r	4ryy	.
8r	.	8g	.	pp
*v	*v	*	*	*
*	*v	*v	*
=19	=19	=19
4C' 4En' 4G' (4c'	4en'\ 4g'\ 4cc'\ (4een'\	.
4C' 4E' 4G' 4c')	4e'\ 4g'\ 4cc'\ 4ee'\)	.
4.C 4.E 4.G 4.c	4.e\ 4.g\ 4.cc\ 4.ee\	.
8c	(8ccT	<
.	16qbnLL	.
.	16qccJJ	.
=20	=20	=20
8Bn 8cL	8dd'L)	.
8B- 8c	(8eent	.
.	16qddLL	.
.	16qeeJJ	.
8A- 8c	8ff')	.
8En 8cJ	(8ggtJ	.
.	16qffLL	.
.	16qggJJ	.
4.F 4.c	[2aa-)	sf
(8EEn	.	.
=21	=21	=21
*	*^	*
8FFL	2ryy	8aa-L]	.
8GG	.	(16aa-L	.
.	.	16ggJJ	.
8AA-	.	16ffLL	.
.	.	16ee-X	.
8AAnJ)	.	16dd	.
.	.	16ccJJ)	.
2BB-z	[2b-z	8r	>
.	.	(>16a-LL	.
.	.	16gJJ	.
.	.	16fLL	.
.	.	16e-	.
.	.	16d	.
.	.	16cJJ)	.
=22	=22	=22	=22
*^	*	*	*
16BB-LL	4BB-	(8b-L]	4B-	p
(16C	.	.	.	.
16D	.	8an	.	.
16E-JJ	.	.	.	.
16FLL	4BB-	8a-	4d	.
16G	.	.	.	.
16A-	.	8fJ	.	.
16FJJ	.	.	.	.
4G)	4E-	4e-	4e-)	.
8EE-'	4ryy	8r	4ryy	.
8r	.	8B-	.	pp
*v	*v	*	*	*
*	*v	*v	*
=23	=23	=23
2r	(4B-' 4g' 4b-'	.
.	4B-') 4g' 4b-'	.
16r	2B- 2e- 2g	.
(16BB-LL<	.	.
16C	.	.
16DJJ	.	.
16E-LL	.	.
16F	.	.
16G	.	.
16E-JJ)	.	.
=24	=24	=24
8A-'	(4B-' 4d' 4f'	.
8r	.	.
4r	4B-') 4d' 4f'	.
(16A-LL	2B- 2f 2a- 2b-	.
16G	.	.
16F	.	.
16E-JJ	.	.
16DLL<	.	.
16C	.	.
16BB-	.	.
16DJJ)	.	.
=25	=25	=25
8E-'	(4B-' 4g' 4b-'	.
8r	.	.
4r	4B-') 4g' 4b-'	.
16r	2B- 2e- 2g	.
(16BB-LL<	.	.
16C	.	.
16DJJ	.	.
16E-LL	.	.
16F	.	.
16G	.	.
16E-JJ)	.	.
=26	=26	=26
(16A-LL	8B- 8d 8f	.
16F)	.	.
16D'	4b-^>/	.
16BB-'JJ	.	.
16AA-'LL	.	.
16FF'	.	.
16DD'	8A- 8b-	.
16BBB-'JJ	.	.
(4EE-	4G 4e-	.
8E-)	8r	.
8r	8B-	.
=27	=27	=27
2r	8B- 8g 8b-L	pp
.	8B- 8g 8b-	.
.	8B- 8g 8b-	.
.	8B- 8g 8b-J	.
16r	2B- 2e- 2g	.
(16BB-LL<	.	.
16C	.	.
16DJJ	.	.
16E-LL	.	.
16F	.	.
16G	.	.
16E-JJ)	.	.
=28	=28	=28
8A-'	8B- 8d 8fL	.
8r	8B- 8d 8f	.
4r	8B- 8d 8f	.
.	8B- 8d 8fJ	.
(16A-LL	2B- 2f 2a- 2b-	.
16G	.	.
16F	.	.
16E-JJ	.	.
16DLL<	.	.
16C	.	.
16BB-	.	.
16DJJ)	.	.
=29	=29	=29
8E-'	8B- 8g 8b-L	.
8r	8B- 8g 8b-	.
4r	8B- 8g 8b-	.
.	8B- 8g 8b-J	.
16r	2B- 2e- 2g	.
(16BB-LL<	.	.
16C	.	.
16DJJ	.	.
16E-LL	.	.
16F	.	.
16G	.	.
16E-JJ)	.	.
=30	=30	=30
(16A-LL	8B- 8d 8f	.
16F)	.	.
16D'	4b-^>/	.
16BB-'JJ	.	.
16AA-'LL	.	.
16FF'	.	.
16DD'	8A- 8b-	.
16BBB-'JJ	.	.
(4EE-	4G 4e-	.
8E-)	4r	.
8r	.	.
=31	=31	=31
2r	8f 8a-L	.
.	8f 8a-	.
.	8f 8a-	.
.	8f 8a-J	.
16r	2f 2a- 2dd	.
16BBB-'LL	.	.
16BB-'	.	.
16C'JJ	.	.
16D'LL	.	.
16E-'	.	.
16F'	.	.
16G'JJ	.	.
=32	=32	=32
(8An	8f 8ddL<	<
[4.B-z)	8f 8dd	.
.	8f 8dd	.
.	8f 8ddJ	.
16B-LL]	2f 2a- 2dd 2ff	.
16BBB-	.	.
16BB-'	.	.
16C'JJ	.	.
16D'LL	.	.
16E-'	.	.
16F'	.	.
16G'JJ	.	.
=33	=33	=33
*	*^	*
(8An	8f 8dd 8ffL	2ryy	.
[4.B-)	8f 8dd 8ff	.	.
.	8f 8dd 8ff	.	.
.	8f 8dd 8ffJ	.	.
8B-L]	(4.aa-	4ddz 4ffz	.
(8Bn	.	.	.
8c	.	8ee-L	.
8GJ	8gg)	8bnJ	.
=34	=34	=34	=34
*^	*	*	*
4ryy	8A-XL	(8ggL	8ccL	>
.	8An)	8ff	8cc	.
[4B-X	8B-X	8ee-	8g	.
.	8BB-J	8ddJ)	8f 8a-J	]
(<8B-]L	4.E-	(4ff	(4a-	p
8d	.	.	.	.
8e-J)	.	8ee-)	8g)	.
8r	8r	8r	8r	.
*v	*v	*	*	*
*	*v	*v	*
=35	=35	=35
2r	(16gLL	p
.	16a-)	.
.	(16g	.
.	16a-JJ)	.
.	(16gLL	.
.	16a-)	.
.	(16g	.
.	16a-JJ)	.
16r	2f 2a- 2dd	.
16BBB-LL	.	.
16BB-'	.	.
16C'JJ	.	.
16D'LL	.	.
16E-'	.	.
16F'	.	.
16G'JJ	.	.
=36	=36	=36
(8An	(16cc#LL	<
.	16dd)	.
[4.B-z)	(16cc#	.
.	16ddJJ)	.
.	(16cc#LL	.
.	16dd)	.
.	(16cc#	.
.	16ddJJ)	.
16B-LL]	2f 2a- [2dd [2ff	.
16BBB-'	.	.
16BB-'	.	.
16C'JJ	.	.
16D'LL	.	.
16E-'	.	.
16F'	.	.
16G'JJ	.	.
=37	=37	=37
*	*^	*
(8An	2ryy	16dd] 16ffLL]	.
.	.	16dd' 16ff'	.
[4.B-z)	.	16cc# (16een	.
.	.	16dd 16ffJJ)	.
.	.	16cc# (16eeLL	.
.	.	16dd 16ff)	.
.	.	16cc# (16ee	.
.	.	16dd 16ffJJ)	.
8B-L]	(4.aa-	4ddz 4ffz	.
(8Bn	.	.	.
8c	.	8ee-L	.
8GJ	8gg)	8bnJ	.
=38	=38	=38	=38
*^	*	*	*
4ryy	8A-L	(8ggL	8ccnL	>
.	8An)	8ff	8cc	.
4B-X	8B-X	8ee-	8g	.
.	8BB-J	8ddJ)	8f 8a-J	]
(<8B-L	4.E-	4ff	4a-	p
8d	.	.	.	.
8e-J)	.	8ee-	8g	.
8rc	8r	8r	8r	.
*v	*v	*	*	*
*	*v	*v	*
=39||	=39||	=39||
*>E	*>E	*>E
!!!OMD: Allegro
*k[]	*k[]	*k[]
*M6/8	*M6/8	*M6/8
*MM120	*MM120	*MM120
8r	16G<LL	f
.	16F<JJ	.
=40	=40	=40
4CC 4EE 4GG 4C	16E<LL	.
.	16G<	.
.	16c<	.
.	16G<	.
8r	16e	.
.	16cJJ	.
4r	16gLL	.
.	16e	.
.	16cc	.
.	16g	.
8r	16ee	.
.	16ccJJ	.
*clefG2	*	*
=41	=41	=41
8c 8e 8gL	8gg'L	p
8c 8e 8g	8ee'	.
8c 8e 8gJ	8cc'J	.
4d 4f 4g	4b'	.
8r	16dLL	f
.	16cJJ	.
*clefF4	*	*
=42	=42	=42
4GG 4BB 4D 4G	16BLL	.
.	16d	.
.	16g	.
.	16d	.
8r	16b	.
.	16gJJ	.
4r	16ddLL	.
.	16b	.
.	16gg	.
.	16dd	.
8r	16bb	.
.	16ggJJ	.
*clefG2	*	*
=43	=43	=43
8B 8d 8gL	8ddd'L	p
8B 8d 8g	8bb'	.
8B 8d 8gJ	8ff'J	.
4c 4e 4g	4ee'	.
8r	16ggLL	.
.	16ffJJ	.
=44	=44	=44
8r	(16eeLL	<
.	16gg	.
16gLL	16ee	.
16f	16dd	.
16e	16cc	.
16gJJ	16eeJJ	.
16eLL	16ccLL<	.
16d	16b	.
16c	16a	.
16e	16cc	.
16c	16a	.
16BJJ	16gJJ	.
*clefF4	*	*
=45	=45	=45
16ALL	16fLL	.
16c	16a	.
16A	16f	.
16G	16e	.
16F	16d	.
16AJJ	16fJJ	.
16FLL	16dLL	.
16E	16c	.
16D	16B	.
16F	16d	.
16D	16B	.
16CJJ	16AJJ)	.
=46	=46	=46
*^	*	*
16G#LL	8BB	2.ryy	p
16B	.	.	.
16G#	16rEE	.	.
16F	16EELL	.	.
16E	16FF#	.	.
16DJJ	16GG#JJ	.	.
16CLL	8AA	.	.
16e	.	.	.
16c	16rCC	.	.
16B	16AAALL	.	.
16A	16BBB	.	.
16GnJJ	16CCJJ	.	.
=47	=47	=47	=47
16F#LL	8DD	4.ryy	.
16E	.	.	.
16D	16rCC	.	.
16C	16DDLL	.	.
16BB	16EE	.	.
16AAJJ	16FF#JJ	.	.
4GGn	4GGGn	4ryy	.
*v	*v	*	*
=:|!|:	=:|!|:	=:|!|:
*>F	*>F	*>F
*^	*	*
16DLL	8rEE	8ryy	p
16CJJ	.	.	.
=48	=48	=48	=48
16BBLL	4r	4.ryy	.
16D	.	.	.
16G	.	.	.
16D	.	.	.
16B	8rEE	.	.
16GJJ	.	.	.
4.ryy	4rEE	16dLL	.
.	.	16B	.
.	.	16g	.
.	.	16dJ	.
.	8GGG 8BBB 8DD 8GG	8bJ	sf
=49	=49	=49	=49
16DLL	4r	4.ryy	.
16Fn	.	.	.
16B	.	.	.
16F	.	.	.
16d	8rEE	.	.
16BJJ	.	.	.
4.ryy	4rEE	16fLL	.
.	.	16d	.
.	.	16b	.
.	.	16fJ	.
.	8GGG 8BBB 8DD 8GG	8ddJ	sf
*v	*v	*	*
=50	=50	=50
4rEE	16F<LL	.
.	16B<	.
.	16d	.
.	16B<	.
8rEE	16f	.
.	16dJJ	.
4rEE	16bLL	.
.	16f	.
.	16dd	.
.	16bJ	.
8GG\ 8BB\ 8D\ 8G\	8ffJ	sf
=51	=51	=51
4r	16bLL	.
.	16f	.
.	16dd	.
.	16bJ	.
8GG\ 8BB\ 8D\ 8G\	8ffJ	sf
4r	16bLL	.
.	16f	.
.	16dd	.
.	16bJ	.
8GG\ 8BB\ 8D\ 8G\	8ffJ	sf
*clefG2	*	*
=52	=52	=52
8r	(16eeLL	p
.	16gg	.
(<16gLL	16ee	.
16f	16dd	.
16e	16cc	.
16gJJ	16eeJJ	.
16eLL	16ccLL	<
16d	16b	.
16c	16a	.
16e	16cc	.
16c	16a	.
16BJJ	16gJJ	.
*clefF4	*	*
=53	=53	=53
16ALL	16fLL	.
16c	16a	.
16A	16f	.
16G	16e	.
16F	16d	.
16AJJ	16fJJ	.
16FLL	16dLL	.
16E	16c	.
16D	16B	.
16C	16A<	.
16BB	16G<	.
16DJJ)	16F<JJ)	.
=54	=54	=54
8C\	16E<LL	p
.	16g	.
16r	16e	.
16CCLL	16d	.
16DD	16c	.
16EEJJ	16B-JJ	.
8FF	16ALL	.
.	16a	.
16r	16f	.
16DDLL	16e	.
16EE	16d	.
16FFJJ	16cJJ	.
=55	=55	=55
*^	*	*
16BnLL	8GG	2.ryy	.
16A	.	.	.
16G	16rCC	.	.
16F	16GGGLL	.	.
16E	16AAA	.	.
16DJJ	16BBBJJ	.	.
4C	4CC	.	.
16DLL	8rCC	.	p
16CJJ	.	.	.
=56	=56	=56	=56
16BBLL	4rEE	4.ryy	.
16D	.	.	.
16G	.	.	.
16D	.	.	.
16B	8rEE	.	.
16GJJ	.	.	.
4.ryy	4rEE	16dLL	.
.	.	16B	.
.	.	16g	.
.	.	16dJ	.
.	8GGG/ 8BBB/ 8DD/ 8GG/	8bJ	sf
=57	=57	=57	=57
16DLL	4rEE	4.ryy	.
16F	.	.	.
16B	.	.	.
16F	.	.	.
16d	8rEE	.	.
16BJJ	.	.	.
4.ryy	4rEE	16fLL	.
.	.	16d	.
.	.	16b	.
.	.	16fJ	.
.	8GGG 8BBB 8DD 8GG	8ddJ	sf
*v	*v	*	*
=58	=58	=58
4r	16F<LL	.
.	16B<	.
.	16d<	.
.	16B<	.
8r	16f	.
.	16dJJ	.
4r	16bLL	.
.	16f	.
.	16dd	.
.	16bJ	.
8GG\ 8BB\ 8D\ 8G\	8ffJ	sf
=59	=59	=59
4r	16bLL	.
.	16f	.
.	16dd	.
.	16bJ	.
8GG\ 8BB\ 8D\ 8G\	8ffJ	sf
4r	16bLL	.
.	16f	.
.	16dd	.
.	16bJ	.
8GG\ 8BB\ 8D\ 8G\	8ffJ	sf
=60	=60	=60
8r	(16ee-LL	p
.	16gg	.
*clefG2	*	*
(16gLL	16ee-	.
16f	16dd	.
16e-	16cc	.
16gJJ	16ee-JJ	.
16e-LL	16ccLL<	.
16d	16b-	.
16c	16a-	.
16e-	16cc	.
16c	16a-	.
16B-JJ)	16gJJ)	.
*clefF4	*	*
=61	=61	=61
(16A-LL	(>16fLL	.
16c	16a-	.
16A-	16f	.
16G	16e-	.
16F	16d	.
16A-JJ	16fJJ	.
16FLL	16dLL	.
16E-	16c	.
16D	16B-	.
16F	16a-	.
16D	16f	.
16CJJ	16e-JJ	.
=62	=62	=62
16BB-LL	16dLL	<
16A-	16f	.
16F	16d	.
16E-	16c	.
16D	16B-	.
16FJJ	16a-JJ	.
16DLL<	16fLL	.
16C	16e-	.
16BB-	16d	.
16F	16a-	.
16D	16f	.
16CJJ	16e-JJ	.
=63	=63	=63
16BB-LL<	16dLL	.
16F	16a-	.
16D	16f	.
16C	16e-	.
16BB-	16d	.
16FJJ	16a-JJ	.
16DLL<	16fLL	.
16C	16e-	.
16BB-	16d	.
16F	16a-	.
16D	16f	.
16CJJ)	16e-JJ)	.
=64	=64	=64
(16BB-LL	(16dLL	f
16C	16e-	.
16D	16f	.
16E-	16g	.
16F	16a-	.
16GJJ	16b-JJ	.
16A-LL	16ccLL	.
16B-	16dd	.
16c	16ee-	.
16c#	16een	.
16d	16ff	.
16e-JJ)	16ggJJ)	.
=65	=65	=65
2.B-; 2.f;	2.dd; 2.aa-;	sf
=66||	=66||	=66||
*k[b-e-a-]	*k[b-e-a-]	*k[b-e-a-]
*M4/4	*M4/4	*M4/4
*MM100	*MM100	*MM100
!!!OMD: Tempo 1<sup>o</sup> (Andante)
2r	(4B-' 4g' 4b-'	pp
.	4B-') 4g' 4b-'	.
16r	2B- 2e- 2g	.
(16BB-LL<	.	.
16C	.	.
16DJJ	.	.
16E-LL	.	.
16F	.	.
16G	.	.
16E-JJ)	.	.
=67	=67	=67
8A-'	(4B-' 4d' 4f'	.
8r	.	.
4r	4B-') 4d' 4f'	.
(16A-LL	2B- 2f 2a- 2b-	.
16G	.	.
16F	.	.
16E-JJ	.	.
16DLL<	.	.
16C	.	.
16BB-	.	.
16DJJ)	.	.
=68	=68	=68
8E-'	(4B-' 4g' 4b-'	.
8r	.	.
4r	4B-') 4g' 4b-'	.
16r	2B- 2e- 2g	.
(16BB-LL<	.	.
16C	.	.
16DJJ	.	.
16E-LL	.	.
16F	.	.
16G	.	.
16E-JJ)	.	.
=69	=69	=69
(16A-LL	8B- 8d 8f	.
16F)	.	.
16D'	4b-^>/	.
16BB-'JJ	.	.
16AA-'LL	.	.
16FF'	.	.
16DD'	8A- 8b-	.
16BBB-'JJ	.	.
(4EE-	4G 4e-	.
8E-)	4r	.
8r	.	.
=70	=70	=70
4BB-' 4G' (4B-'	2r	pp
4BB-' 4G' 4B-')	.	.
2BB- 2E- 2G	16r	.
.	(16b-LL	pp
.	16cc	.
.	16ddJJ	.
.	16ee-LL	.
.	16ff	.
.	16gg	.
.	16ee-JJ)	.
=71	=71	=71
4BB-' 4D' (4F'	8aa-'	.
.	8r	.
4BB-' 4D' 4F')	4r	.
2BB- 2F 2A- 2B-	(16aa-LL	.
.	16gg	.
.	16ff	.
.	16ee-JJ	.
.	16ddLL	.
.	16cc	.
.	16b-	.
.	16ddJJ)	.
=72	=72	=72
4BB-' 4G' (4B-'	8ee-'	.
.	8r	.
4BB-' 4G' 4B-')	4r	.
2BB- 2E- 2G	16r	.
.	(16b-LL	.
.	16cc	.
.	16ddJJ	.
.	16ee-LL	.
.	16ff	.
.	16gg	.
.	16ee-JJ)	.
=73	=73	=73
8BB- 8D 8F	(16aa-LL	.
.	16ff)	.
4B-^	16dd'	.
.	16b-'JJ	.
.	16a-'LL	.
.	16f	.
8AA- 8B-	16d'	.
.	16B-'JJ	.
8GG 8E-	8e-	.
8r	8r	.
4r	4r	.
=74	=74	=74
2r	(4f' 4a-'	pp
.	4f') 4a-'	.
16r	2f 2a- 2dd	.
16BBB-'LL	.	.
16BB-'	.	.
16C'JJ	.	.
16D'LL	.	.
16E-'	.	.
16F'	.	.
16G'JJ	.	.
=75	=75	=75
(8An	(4f' 4dd'	<
[4.B-z)	.	.
.	4f') 4dd'	.
16B-LL]	2f/ 2a-/ 2dd/ 2ff/	.
16BBB-'	.	.
16BB-'	.	.
16C'JJ	.	.
16D'LL	.	.
16E-'	.	.
16F'	.	.
16G'JJ	.	.
=76	=76	=76
*	*^	*
(8An	2ryy	(4f'/ 4dd'/ 4ff'/	.
[4.B-z)	.	.	.
.	.	4f'/) 4dd'/ 4ff'/	.
(8B-L]	(4.aa-	4dd 4ff	sf
8Bn	.	.	.
8c	.	8ee-L	.
8GJ)	8gg)	8bnJ	.
=77	=77	=77	=77
*^	*	*	*
4ryy	(8A-XL	8ggL	8ccL	>
.	8An)	8ff	8cc	.
[4B-X	8B-X	8ee-	8g	.
.	8BB-J	8ddJ	8f 8a-J	p
(<8B-]L	4.E-	(4ff	(4a-	.
8d	.	.	.	.
8e-J)	.	8ee-)	8g)	.
8r	8r	8r	8r	.
*v	*v	*	*	*
*	*v	*v	*
=78	=78	=78
4F' (4A-X'	2r	pp
4F' 4A-')	.	.
2F 2A- 2d	8r	.
.	16b-'LL	.
.	16cc'JJ	.
.	16dd'LL	.
.	16ee-'	.
.	16ff'	.
.	16gg'JJ	.
=79	=79	=79
4F' (4d'	(8aan'	<
.	[4.bb-z)	.
4F' 4d')	.	.
2A- 2d 2f	8bb-]	.
.	16b-'LL	.
.	16cc'JJ	.
.	16dd'LL	.
.	16ee-'	.
.	16ff'	.
.	16gg'JJ	.
*clefG2	*	*
=80	=80	=80
*^	*	*
(4d' 4f'	2ryy	(8aan'	.
.	.	[4.bb-Z)	sf
4d' 4f')	.	.	.
(4.a-	4dz 4fz	(8bb-L]	.
.	.	8bbn)	.
.	8e-L	(8ccc	.
8g)	8BnJ	8dddJ	.
*v	*v	*	*
=81	=81	=81
8c 8gL	8eee-L	>
8An 8f	8ccc	.
8B- 8e-	8gg	.
8B- 8dJ	[8aa-XJ)	.
*clefF4	*	*
4B- (4f	(8aa-L]	p
.	8dd	.
8E- 8e-)	8ee-J)	.
8r	8e-	.
=82	=82	=82
2r	4g' 4b-' (4dd-'	pp
.	4g' 4b-' 4dd-')	.
(4E-	2r	.
4EE-)	.	.
=83	=83	=83
2r	(4e-' 4a-' 4cc'	.
.	4e-') 4a-' 4cc'	.
(4E-	2r	.
4EE-)	.	.
=84	=84	=84
2r	(4d' 4f' 4a-'	.
.	4d') 4f' 4a-'	.
(4E-	2r	.
4EE-)	.	.
=85	=85	=85
4r	(4B-' 4e-' 4g'	<
(8E-L	4r	.
8EE-J)	.	.
4r	4d') 4f' 4a-'	.
(8E-L	4r	.
8EE-J)	.	[
=86	=86	=86
4r	(4B-' 4e-' 4g'	>
(8E-L	4r	.
8EE-J)	.	.
4r	4d') 4f' 4a-'	.
(8E-L	4r	.
8EE-J)	.	]
=87	=87	=87
4r	4B- 4e- 4g	>
(8E-L	4r	.
8EE-J)	.	.
2r	2r	.
=88	=88	=88
4r	4G 4B- 4e- 4g	.
(8E-L	4r	.
8EE-J)	.	.
2r	2r	.
=89	=89	=89
2r	1gg; 1bb-; 1eee-;	pp
!LO:TX:a:t=senza\nsord.	!	!
!LO:TX:b:i:t=attaca	!	!
2EE-;	.	.
=||	=||	=||
*-	*-	*-
!!!RDF**kern: > = above
!!!RDF**kern: < = below
!!!ENC: Craig Stuart Sapp
!!!END: 2008/02/11
!!!EED: Craig Stuart Sapp
!!!EEV: 2018/07/04
